!!!SOCIAL_FUNCTION:	songs received from animals
!!!PDT:	1918

Specific Region: Dakotas, Minnesota, Montana, Nebraska
!!!REG: Dakotas and Montana
!!!LING_GROUP: Siouan
!!!LANG: Tone
!!!OTL@ENG: He Comes to Attack
!!!ONM: No. 58
**kern
*Imale
*clefF4
*k[b-e-a-]
*M2/4
*MM84
8c
8c
4c
=2
8c
8c
16c
8.F
=3
16c
8.F
16F
8.E-
=4
16A-
8.F
16A-
8.E-
=5
16E-
8.C
8C
8C
=6||
*M3/4
4C
4C
4C
=7||
*M2/4
16A-
8.F
4F
=8
16A-
8.F
16F
8.E-
=9||
*M3/4
16E-
8.C
8C
16E-
16E-
16E-
8.C
=10
4C
8C
16E-
16C
4C
=11
4C
4C
8C
8C
=12||
*M2/4
4G
8.G
16G
=13
8.c
16c
4c
=14
(16c
8.G)
8.G
16c
=15
(16c
8.G)
(16c
8.F)
=16
(16F
8.E-)
(16E-
8.C)
=17
4C
4C
=18
4C
16C
8.C
=19||
*M3/4
4C
4C
8.C
16c
=20||
*M2/4
(16c
8.G)
(16c
8.F)
=21
(16G
8.E-)
8E-
16E-
16E-
=22
(12E-
12C)
12C
8C
(16E-
16C)
=23
4C
4C
=24
4C
4C
==
*-
!!!CNT: Native American -- Sioux
!!!MRD: 1911/07//-1914///
!!!OCL: Frances Densmore
!!!YOR1: Teton Sioux Music, Bulletin 61,
!!!YOR2: Bureau of American Ethnology, Smithsonian Institution
!!!PPR: Government Printing Office
!!!PPP: Washington, D.C.
!!!PDT: 1918///
!!!ENC: Craig Stuart Sapp
!!!END: 2002/03/25/
!!!EEV: 2002/03/31/
!!!AGN: Song of Personal Dreams/Song Received from Animals
!!!MPN@@SIO: Waking'yan-wata'kpe
!!!MPN@ENG: Charging Thunder
!!!TXO: Teton Sioux
!!!MLC: Standing Rock Reservation, South Dakota, United States of America
!!!ARL: 45.9/-100.7#
!!!catalog: Catalogue No. 562
!!!PPG: 197
!!!EFL: 58/245
!!!VTS: 3945377896
